packages/dnb-eufemia/assets/icons/email.svg

<svg width="16" height="16" viewBox="0 0 16 16" fill="none" xmlns="http://www.w3.org/2000/svg">
<path d="M1.25484 3.31332C1.09686 3.49245 1 3.7341 1 4V12C1 12.5523 1.41787 13 1.93333 13H14.0667C14.5821 13 15 12.5523 15 12V4C15 3.73001 14.9001 3.48501 14.7378 3.30509M1.25484 3.31332C1.42499 3.12039 1.66604 3 1.93333 3H14.0667C14.3301 3 14.5681 3.11697 14.7378 3.30509M1.25484 3.31332L7.18332 7.88206C7.42341 8.0674 7.70825 8.16667 8 8.16667C8.29175 8.16667 8.5766 8.0674 8.81668 7.88206L14.7378 3.30509" stroke="black" stroke-width="1.5" stroke-linecap="round" stroke-linejoin="round"/>
</svg>

<svg width="16" height="16" viewBox="0 0 16 16" fill="none" xmlns="http://www.w3.org/2000/svg"><path d="M1.255 3.313C1.097 3.493 1 3.734 1 4v8c0 .552.418 1 .933 1h12.134c.515 0 .933-.448.933-1V4c0-.27-.1-.515-.262-.695m-13.483.008A.903.903 0 0 1 1.933 3h12.134a.9.9 0 0 1 .67.305m-13.482.008 5.928 4.57c.24.184.525.284.817.284.292 0 .577-.1.817-.285l5.92-4.577" stroke="#000" stroke-width="1.5" stroke-linecap="round" stroke-linejoin="round"/></svg>
